icons/svg/alarm-off.svg

<svg xmlns="http://www.w3.org/2000/svg" version="1.1" baseProfile="full" width="24" height="24" viewBox="0 0 24.00 24.00" xml:space="preserve"><path fill="#000" fill-opacity="1" stroke-linejoin="round" d="M8.02 3.28L6.6 1.86l-.86.71 1.42 1.42m9.31 14.4C15.26 19.39 13.7 20 12 20c-3.87 0-7-3.13-7-7 0-1.7.61-3.26 1.61-4.47M2.92 2.29L1.65 3.57 2.98 4.9l-1.11.93 1.42 1.42 1.11-.94.8.8C3.83 8.69 3 10.75 3 13c0 4.97 4.02 9 9 9 2.25 0 4.31-.83 5.89-2.2l2.2 2.2 1.27-1.27L3.89 3.27l-.97-.98zM22 5.72l-4.6-3.86-1.29 1.53 4.6 3.86L22 5.72zM12 6c3.87 0 7 3.13 7 7 0 .84-.16 1.65-.43 2.4l1.52 1.52c.58-1.19.91-2.51.91-3.92 0-4.97-4.03-9-9-9-1.41 0-2.73.33-3.92.91L9.6 6.43C10.35 6.16 11.16 6 12 6z"/></svg>

﻿<?xml version="1.0" encoding="utf-8"?>
<!DOCTYPE svg PUBLIC "-//W3C//DTD SVG 1.1//EN" "http://www.w3.org/Graphics/SVG/1.1/DTD/svg11.dtd">
<svg xmlns="http://www.w3.org/2000/svg" xmlns:xlink="http://www.w3.org/1999/xlink" version="1.1" baseProfile="full" width="24" height="24" viewBox="0 0 24.00 24.00" enable-background="new 0 0 24.00 24.00" xml:space="preserve">
	<path fill="#000000" fill-opacity="1" stroke-linejoin="round" d="M 8.02,3.28L 6.6,1.86L 5.74,2.57L 7.16,3.99M 16.47,18.39C 15.26,19.39 13.7,20 12,20C 8.13,20 5,16.87 5,13C 5,11.3 5.61,9.74 6.61,8.53M 2.92,2.29L 1.65,3.57L 2.98,4.9L 1.87,5.83L 3.29,7.25L 4.4,6.31L 5.2,7.11C 3.83,8.69 3,10.75 3,13C 3,17.97 7.02,22 12,22C 14.25,22 16.31,21.17 17.89,19.8L 20.09,22L 21.36,20.73L 3.89,3.27L 2.92,2.29 Z M 22,5.72L 17.4,1.86L 16.11,3.39L 20.71,7.25L 22,5.72 Z M 12,6C 15.87,6 19,9.13 19,13C 19,13.84 18.84,14.65 18.57,15.4L 20.09,16.92C 20.67,15.73 21,14.41 21,13C 21,8.03 16.97,4 12,4C 10.59,4 9.27,4.33 8.08,4.91L 9.6,6.43C 10.35,6.16 11.16,6 12,6 Z "/>
</svg>
